svgs/sharp-light/square-divide.svg

<svg xmlns="http://www.w3.org/2000/svg" viewBox="0 0 448 512"><!--! Font Awesome Pro 6.6.0 by @fontawesome - https://fontawesome.com License - https://fontawesome.com/license (Commercial License) Copyright 2024 Fonticons, Inc. --><path d="M32 64l0 384 384 0 0-384L32 64zM0 32l32 0 384 0 32 0 0 32 0 384 0 32-32 0L32 480 0 480l0-32L0 64 0 32zM248 136l0 48-48 0 0-48 48 0zM128 240l192 0 16 0 0 32-16 0-192 0-16 0 0-32 16 0zm72 88l48 0 0 48-48 0 0-48z"/></svg>

<svg xmlns="http://www.w3.org/2000/svg" viewBox="0 0 448 512"><!--! Font Awesome Pro 6.5.2 by @fontawesome - https://fontawesome.com License - https://fontawesome.com/license (Commercial License) Copyright 2024 Fonticons, Inc. --><path d="M32 64V448H416V64H32zM0 32H32 416h32V64 448v32H416 32 0V448 64 32zM248 136v48H200V136h48zM128 240H320h16v32H320 128 112V240h16zm72 88h48v48H200V328z"/></svg>
